X:1
T:Title
%%score { ( 1 3 ) | 2 }
L:1/8
M:6/8
K:C
V:1 treble nm="Grand Piano"
V:3 treble 
V:2 bass 
V:1
 z3 z2[Q:1/4=87] [CE]/[EG]/ | [Ec]2 [Ec] [Fc]2 [FA]/[FB]/ | [Ec]2 [Fc] [Ec]2 E/F/ | G2 G G2 G/G/ | %4
 [EG]2 [_EA] .[=EG]2 [CE]/[EG]/ | [Ec]2 [Ec] [Fc]2 [FA]/[FB]/ | [Ec]2 [Fc] [Ec]2 [Ec]/[Ec]/ | %7
 B2 B B2 A | [B,G]6 |[M:4/4] [EG]2 [EA][EB] [Ed][G,E][G,EG][CE] | [F-B]4 F2 z2 | G2 GA GAGA | %12
 [EG]6 z2 | [G,EG]2 [EA][EB] [Ed][Ec][G,EG][CE] |[M:9/8] [F-B]6 F/ z/ z z |[M:4/4] c2 A2 B3 [Ec] | %16
[M:7/8] [Ec]-[Ec]-[Ec]- [Ec]3 z |] %17
V:2
 z3 z2 [C,G,]/[C,G,]/ | [C,G,]2 [C,G,] [C,A,]2 [C,A,]/[C,A,]/ | [C,G,]2 [C,A,] [C,G,]2 E,/F,/ | %3
 G,2[K:treble] [G,B,F] [G,B,F]2 [G,B,F]/[G,B,F]/ | [C,C]2 [C,^F,] .[C,G,]2 [C,G,]/[C,G,]/ | %5
 [C,G,]2 [C,G,] [C,A,]2 [C,A,]/[C,A,]/ | [C,G,]2 [C,A,] [C,G,]2 [C,G,]/[C,G,]/ | %7
 [D,G,D]2 [D,G,D] [D,E,^C]2 [D,F,=C] | [G,,D,G,]6 |[M:4/4] [C,G,]2 [C,G,][C,G,] [C,G,]C,C,C, | %10
 F,2 F,F, [F,C]2 z2 | [G,B,F]2 [G,B,F][G,B,F] [G,B,F]2 [G,B,F]2 | C,C,E,G, C2 z2 | %13
 C,2 [C,G,][C,G,] [C,G,][C,G,]C,C, |[M:9/8] F,F,F, F, [F,C]2- [F,C][K:treble] [F,A,F]2 | %15
[M:4/4] [G,E]2 [G,CE]2 [G,DF]3[K:bass] [C,C] |[M:7/8] [C,G,C]-[C,G,C]-[C,G,C]- [C,G,C]3 z |] %17
V:3
 x6 | x6 | x6 | x6 | x6 | x6 | x6 | x6 | x6 |[M:4/4] x8 | C2 CC A2 z2 | x8 | C4 z4 | x8 | %14
[M:9/8] CCC C A2- A d2 |[M:4/4] x8 |[M:7/8] x7 |] %17

